app/images/icon/facebook.svg

<svg width="38" height="38" viewBox="0 0 38 38" fill="none" xmlns="http://www.w3.org/2000/svg">
<circle cx="19" cy="19" r="18.5" fill="white" stroke="#4267B2"/>
<path d="M19.5436 25.9999V19.6139H21.6074L21.9164 17.1251H19.5436V15.5361C19.5436 14.8156 19.7362 14.3245 20.7311 14.3245L22 14.3239V12.098C21.7805 12.0677 21.0273 12 20.151 12C18.3216 12 17.0692 13.1598 17.0692 15.2897V17.1252H15V19.6139H17.0691V26L19.5436 25.9999Z" fill="#4267B2"/>
</svg>

<svg width="38" height="38" fill="none" xmlns="http://www.w3.org/2000/svg">
    <circle cx="19" cy="19" r="18.5" fill="#fff" stroke="#4267B2"/>
    <path d="M19.544 26v-6.386h2.063l.31-2.489h-2.373v-1.589c0-.72.192-1.211 1.187-1.211L22 14.324v-2.226c-.22-.03-.973-.098-1.849-.098-1.83 0-3.082 1.16-3.082 3.29v1.835H15v2.489h2.07V26h2.474Z" fill="#4267B2"/>
</svg>
